X:1
T:Title
%%score { 1 | 2 }
L:1/8
M:4/4
K:F
V:1 treble nm="Grand Piano"
V:2 bass 
V:1
 z4 z2[Q:1/4=96] [Ec]2- | [Ec]A- A/_A/=A- A/_A/=A- A/_A/=A- | %2
 A/c/[EB]- [EB]/[EA]/[EB]- [EB]/[EA]/ [EB]3- | %3
 [EB]/[EB]/[EB]- [EB]/[EA]/[EB]- [EB]/[EA]/[EB]- [EB]/[EA]/[EB]- | [EB]/[E=B]/c- c/d/c- c/A/ c3- | %5
 c/B/A- A/_A/=A- A/_A/ =A3 |[M:19/16] c[DB]>[DA][DB]>[Ec][Fd]/-[Fd]/-[Fd]/-[Fd]/-[Fd]/-[Fd]-<[Fd] | %7
[M:4/4] [Fd][Fc]- [Fc]/[Fd]/c- c/d/c- c/d/c- | %8
[M:3/4] c/d/[Ec]- [Ec]/[DEB]/[CEA]- [CEA]/[B,EG]/[A,F]- | [A,F] z z2 z2 |] %10
V:2
 z4 z2 [C,C]2- | %1
 [C,C][F,CF]- [F,CF]/[F,=B,F]/[F,CF]- [F,CF]/[F,B,F]/[F,CF]- [F,CF]/[F,B,F]/[F,CF]- | %2
 [F,CF]/[F,A,F]/[C,G,]- [C,G,]/[C,G,]/[C,G,]- [C,G,]/[C,G,]/ [C,G,]3- | %3
 [C,G,]/[C,G,]/[C,C]- [C,C]/[C,C]/[C,C]- [C,C]/[C,C]/[C,C]- [C,C]/[C,C]/[C,C]- | %4
 [C,C]/[C,C]/[F,A,F]- [F,A,F]/[F,B,F]/[F,A,F]- [F,A,F]/[F,CF]/ [F,A,F]3- | %5
 [F,A,F]/[F,DF]/[F,CF]- [F,CF]/[F,=B,F]/[F,CF]- [F,CF]/[F,B,F]/ [F,CF]3 | %6
[M:19/16] [F,A,F][B,,B,]>[B,,B,][B,,B,]>[B,,B,][B,,B,]/-[B,,B,]/-[B,,B,]/-[B,,B,]/-[B,,B,]/-[B,,B,]-<[B,,B,] | %7
[M:4/4] [=B,,G,][C,A,]- [C,A,]/[C,B,]/[F,A,F]- [F,A,F]/[F,B,F]/[F,A,F]- [F,A,F]/[F,B,F]/[F,A,F]- | %8
[M:3/4] [F,A,F]/[F,B,F]/[C,B,]- [C,B,]/C,/C,- C,/C,/F,- | F, z z2 z2 |] %10

